static/assets/head_icons_png/woman/yanjing/1039628.svg

<svg xmlns="http://www.w3.org/2000/svg" width="21" height="5"><g transform="translate(-60.15 -29.25)"><linearGradient id="a" gradientUnits="userSpaceOnUse" gradientTransform="matrix(.00174 .00003 0 .00027 69.95 30.7)" x1="-819.2" x2="819.2"><stop offset="0" stop-color="#3d2b29"/><stop offset=".267" stop-color="#9a8172"/><stop offset=".447" stop-color="#fff"/><stop offset=".647" stop-color="#b89c8b"/><stop offset="1" stop-color="#44342b"/></linearGradient><path d="M69.85 30.5l1.5.1.05.35-2-.15-.6.1-.1-.2-.15-.25 1.3.05" fill="url(#a)"/><path d="M68.35 32.2l-.3-.25.35-.45.1-.45.05-.15.05.35v.2l-.25.75" fill="#453129"/><linearGradient id="b" gradientUnits="userSpaceOnUse" gradientTransform="matrix(.00012 .00073 -.00375 .00046 63.15 31.3)" x1="-819.2" x2="819.2"><stop offset="0" stop-color="#3d2b29"/><stop offset=".267" stop-color="#9a8172"/><stop offset=".447" stop-color="#fff"/><stop offset=".647" stop-color="#b89c8b"/><stop offset="1" stop-color="#44342b"/></linearGradient><path d="M62.3 31.05l-.15.05-.15.15-.05-.05.1-.4.4-.1-.1.3v.05h-.05" fill="url(#b)"/><radialGradient id="c" gradientUnits="userSpaceOnUse" gradientTransform="matrix(.00471 0 0 .00375 67.05 33.7)" spreadMethod="pad" cx="0" cy="0" r="819.2" fx="32" fy="0"><stop offset="0" stop-color="#fff" stop-opacity=".792"/><stop offset="1" stop-color="#fff" stop-opacity="0"/></radialGradient><path d="M68.55 30.9l-.05.15-.1.45-.35.45.3.25-.05.15-.1.2-.15.25q-.6.65-1.95.75l-.1.05-2.45-.3q-.9-.35-1.2-1.4V31l.1-.3.05-.1.2-.2.65-.4 1.85-.25 2.05.25q.8.2 1.05.5l.2.3.05.1" fill="url(#c)"/><linearGradient id="d" gradientUnits="userSpaceOnUse" gradientTransform="matrix(-.00053 -.00003 .00002 -.00053 61.5 31.2)" x1="-819.2" x2="819.2"><stop offset="0" stop-color="#3d2b29"/><stop offset=".267" stop-color="#9a8172"/><stop offset=".447" stop-color="#fff"/><stop offset=".647" stop-color="#b89c8b"/><stop offset="1" stop-color="#44342b"/></linearGradient><path d="M61.25 31.2q-.4.05-1.1.8v-.6l.9-.55 1-.05-.1.4h-.7" fill="url(#d)"/><linearGradient id="e" gradientUnits="userSpaceOnUse" gradientTransform="matrix(.004 -.00005 .00005 .0012 65.55 30.45)" x1="-819.2" x2="819.2"><stop offset="0" stop-color="#3d2b29"/><stop offset=".267" stop-color="#9a8172"/><stop offset=".447" stop-color="#fff"/><stop offset=".647" stop-color="#b89c8b"/><stop offset="1" stop-color="#44342b"/></linearGradient><path d="M68.6 31.25l-.05-.35-.05-.1-.1-.5.15.15.05.1.05.05.1.2.05.15V31l.05.4-.15.05h-.1v-.2" fill="url(#e)"/><linearGradient id="f" gradientUnits="userSpaceOnUse" gradientTransform="matrix(.00182 -.00002 .00006 .00142 67.4 32.6)" x1="-819.2" x2="819.2"><stop offset="0" stop-color="#3d2b29"/><stop offset=".647" stop-color="#b89c8b"/><stop offset="1" stop-color="#44342b"/></linearGradient><path d="M68.6 31.45h.1l-.4.9.05-.15.25-.75" fill="url(#f)"/><linearGradient id="g" gradientUnits="userSpaceOnUse" gradientTransform="matrix(.004 -.00005 .00005 .0012 65.55 30.45)" x1="-819.2" x2="819.2"><stop offset="0" stop-color="#858585" stop-opacity="0"/><stop offset=".447" stop-color="#fff"/><stop offset="1" stop-color="#98a8a6" stop-opacity="0"/></linearGradient><path d="M62.05 30.8l.2-.35q.4-.5 1.3-.85h.05l.5-.05.6-.05 1.25.05 1.85.35.6.4.1.5-.2-.3q-.25-.3-1.05-.5l-2.05-.25-1.85.25-.65.4-.2.2-.05.1-.4.1" fill="url(#g)"/><linearGradient id="h" gradientUnits="userSpaceOnUse" gradientTransform="matrix(.00182 -.00002 .00006 .00142 67.4 32.6)" x1="-819.2" x2="819.2"><stop offset="0" stop-color="#858585" stop-opacity=".102"/><stop offset=".447" stop-color="#fff"/><stop offset="1" stop-color="#98a8a6" stop-opacity="0"/></linearGradient><path d="M68.7 31.45l.15-.05-.25.85-.95 1.15-1.4.35-.25.05v-.2l.1-.05q1.35-.1 1.95-.75l.15-.25.1-.2.4-.9" fill="url(#h)"/><linearGradient id="i" gradientUnits="userSpaceOnUse" gradientTransform="matrix(.00012 .00073 -.00375 .00046 63.15 31.3)" x1="-819.2" x2="819.2"><stop offset="0" stop-color="#848484"/><stop offset=".447" stop-color="#fff"/><stop offset="1" stop-color="#98a8a6" stop-opacity=".102"/></linearGradient><path d="M66 33.8h-1.45q-.85-.05-1.7-.65-.8-.55-.85-1.75v-.15l.15-.15.15-.05h.05v.85q.3 1.05 1.2 1.4l2.45.3v.2" fill="url(#i)"/><path d="M71.55 31.3l.1.1.05.1-.15.5h-.05v-.05l-.15-.35-.05-.15-.1-.25v-.3.1-.1l.1-.4.25.8" fill="#453129"/><linearGradient id="j" gradientUnits="userSpaceOnUse" gradientTransform="matrix(.00053 -.00003 -.00005 -.00053 78.3 30.95)" x1="-819.2" x2="819.2"><stop offset="0" stop-color="#3d2b29"/><stop offset=".267" stop-color="#9a8172"/><stop offset=".447" stop-color="#fff"/><stop offset=".647" stop-color="#b89c8b"/><stop offset="1" stop-color="#44342b"/></linearGradient><path d="M77.75 30.55l.45-.1.55.05 1.5.55q.15.45-.05.5l-1.4-.65-.95.05-.1-.4" fill="url(#j)"/><linearGradient id="k" gradientUnits="userSpaceOnUse" gradientTransform="matrix(-.00008 .00073 .00378 .00043 76.7 31.05)" x1="-819.2" x2="819.2"><stop offset="0" stop-color="#858585" stop-opacity=".714"/><stop offset=".447" stop-color="#fff"/><stop offset="1" stop-color="#98a8a6" stop-opacity=".102"/></linearGradient><path d="M77.85 31v.1q0 1.2-.8 1.8-.75.6-1.6.65H74v-.2l2.4-.3q.9-.4 1.1-1.4l.05-.7.3.05" fill="url(#k)"/><linearGradient id="l" gradientUnits="userSpaceOnUse" gradientTransform="matrix(-.00008 .00073 .00378 .00043 76.7 31.05)" x1="-819.2" x2="819.2"><stop offset="0" stop-color="#3d2b29"/><stop offset=".267" stop-color="#9a8172"/><stop offset=".447" stop-color="#fff"/><stop offset=".647" stop-color="#b89c8b"/><stop offset="1" stop-color="#44342b"/></linearGradient><path d="M77.55 30.95l-.1-.25-.15-.35.2-.2.2.35.05.05.1.4V31l-.3-.05" fill="url(#l)"/><linearGradient id="m" gradientUnits="userSpaceOnUse" gradientTransform="matrix(-.004 -.00002 .00003 .0012 74.25 30.2)" x1="-819.2" x2="819.2"><stop offset="0" stop-color="#858585" stop-opacity=".102"/><stop offset=".447" stop-color="#fff"/><stop offset="1" stop-color="#98a8a6" stop-opacity=".102"/></linearGradient><path d="M77.3 30.35l-.25-.25-.7-.35-1.85-.25-2 .25q-.8.25-1.05.55l-.1.15v-.05l-.05-.25.65-.45q.65-.35 1.8-.4l1.3-.05.55.05.5.05h.1q.9.3 1.3.8l-.2.2" fill="url(#m)"/><linearGradient id="n" gradientUnits="userSpaceOnUse" gradientTransform="matrix(-.004 -.00002 .00003 .0012 74.25 30.2)" x1="-819.2" x2="819.2"><stop offset="0" stop-color="#3d2b29"/><stop offset=".267" stop-color="#9a8172"/><stop offset=".447" stop-color="#fff"/><stop offset=".647" stop-color="#b89c8b"/><stop offset="1" stop-color="#44342b"/></linearGradient><path d="M71 31.2v-.45l.05-.15.15-.3.05-.1.05-.05.05.25v.05l-.05.05-.1.4v.1-.1.3H71" fill="url(#n)"/><linearGradient id="o" gradientUnits="userSpaceOnUse" gradientTransform="matrix(-.00182 0 .00003 .00142 72.5 32.35)" x1="-819.2" x2="819.2"><stop offset="0" stop-color="#3d2b29"/><stop offset=".647" stop-color="#b89c8b"/><stop offset="1" stop-color="#44342b"/></linearGradient><path d="M71.2 31.2l.1.25-.3-.25h.2" fill="url(#o)"/><linearGradient id="p" gradientUnits="userSpaceOnUse" gradientTransform="matrix(-.00182 0 .00003 .00142 72.5 32.35)" x1="-819.2" x2="819.2"><stop offset="0" stop-color="#858585" stop-opacity=".102"/><stop offset=".447" stop-color="#fff"/><stop offset="1" stop-color="#98a8a6" stop-opacity=".643"/></linearGradient><path d="M74 33.55l-.25-.05-1.45-.3-.65-.55-.4-.65-.25-.8.3.25.05.15.15.35V32h.05l.15.35q.55.85 2.2 1h.1v.2" fill="url(#p)"/><radialGradient id="q" gradientUnits="userSpaceOnUse" gradientTransform="matrix(.00285 0 0 .00151 74.3 30.15)" spreadMethod="pad" cx="0" cy="0" r="819.2" fx="32" fy="0"><stop offset="0" stop-color="#fff" stop-opacity=".792"/><stop offset="1" stop-color="#fff" stop-opacity="0"/></radialGradient><path d="M77.45 30.7l.1.25-.05.7q-.2 1-1.1 1.4l-2.4.3h-.1q-1.65-.15-2.2-1l-.15-.35.15-.5-.05-.1-.1-.1-.25-.8.05-.05.1-.15q.25-.3 1.05-.55l2-.25 1.85.25.7.35.25.25.15.35" fill="url(#q)"/></g></svg>

<?xml version="1.0" encoding="utf-8"?>
<svg version="1.1" id="Layer_1"
xmlns="http://www.w3.org/2000/svg"
xmlns:xlink="http://www.w3.org/1999/xlink"
xmlns:author="http://www.sothink.com"
width="21px" height="5px"
xml:space="preserve">
<g id="663" transform="matrix(1, 0, 0, 1, -60.15, -29.25)">
<linearGradient
id="LinearGradID_5463" gradientUnits="userSpaceOnUse" gradientTransform="matrix(0.0017395, 3.05176e-005, 0, 0.000274658, 69.95, 30.7)" spreadMethod ="pad" x1="-819.2" y1="0" x2="819.2" y2="0" >
<stop  offset="0" style="stop-color:#3D2B29;stop-opacity:1" />
<stop  offset="0.266667" style="stop-color:#9A8172;stop-opacity:1" />
<stop  offset="0.447059" style="stop-color:#FFFFFF;stop-opacity:1" />
<stop  offset="0.647059" style="stop-color:#B89C8B;stop-opacity:1" />
<stop  offset="1" style="stop-color:#44342B;stop-opacity:1" />
</linearGradient>
<path style="fill:url(#LinearGradID_5463) " d="M69.85,30.5L71.35 30.6L71.4 30.95L69.4 30.8L68.8 30.9L68.7 30.7L68.55 30.45L69.85 30.5" />
<path style="fill:#453129;fill-opacity:1" d="M68.35,32.2L68.05 31.95L68.4 31.5L68.5 31.05L68.55 30.9L68.6 31.25L68.6 31.45L68.35 32.2" />
<linearGradient
id="LinearGradID_5464" gradientUnits="userSpaceOnUse" gradientTransform="matrix(0.00012207, 0.000732422, -0.00375366, 0.000457764, 63.15, 31.3)" spreadMethod ="pad" x1="-819.2" y1="0" x2="819.2" y2="0" >
<stop  offset="0" style="stop-color:#3D2B29;stop-opacity:1" />
<stop  offset="0.266667" style="stop-color:#9A8172;stop-opacity:1" />
<stop  offset="0.447059" style="stop-color:#FFFFFF;stop-opacity:1" />
<stop  offset="0.647059" style="stop-color:#B89C8B;stop-opacity:1" />
<stop  offset="1" style="stop-color:#44342B;stop-opacity:1" />
</linearGradient>
<path style="fill:url(#LinearGradID_5464) " d="M62.3,31.05L62.15 31.1L62 31.25L61.95 31.2L62.05 30.8L62.45 30.7L62.35 31L62.35 31.05L62.3 31.05" />
<radialGradient
id="RadialGradID_5465" gradientUnits="userSpaceOnUse" gradientTransform="matrix(0.00471497, 0, 0, 0.00375366, 67.05, 33.7)" spreadMethod ="pad" cx="0" cy="0" r="819.2" fx="32" fy="0" >
<stop  offset="0"  style="stop-color:#FFFFFF;stop-opacity:0.792157" />
<stop  offset="1"  style="stop-color:#FFFFFF;stop-opacity:0" />
</radialGradient>
<path style="fill:url(#RadialGradID_5465) " d="M68.55,30.9L68.5 31.05L68.4 31.5L68.05 31.95L68.35 32.2L68.3 32.35L68.2 32.55L68.05 32.8Q67.45 33.45 66.1 33.55L66 33.6L63.55 33.3Q62.65 32.95 62.35 31.9L62.35 31.05L62.35 31L62.45 30.7L62.5 30.6L62.7 30.4L63.35 30L65.2 29.75L67.25 30Q68.05 30.2 68.3 30.5L68.5 30.8L68.55 30.9" />
<linearGradient
id="LinearGradID_5466" gradientUnits="userSpaceOnUse" gradientTransform="matrix(-0.000534058, -3.05176e-005, 1.52588e-005, -0.000534058, 61.5, 31.2)" spreadMethod ="pad" x1="-819.2" y1="0" x2="819.2" y2="0" >
<stop  offset="0" style="stop-color:#3D2B29;stop-opacity:1" />
<stop  offset="0.266667" style="stop-color:#9A8172;stop-opacity:1" />
<stop  offset="0.447059" style="stop-color:#FFFFFF;stop-opacity:1" />
<stop  offset="0.647059" style="stop-color:#B89C8B;stop-opacity:1" />
<stop  offset="1" style="stop-color:#44342B;stop-opacity:1" />
</linearGradient>
<path style="fill:url(#LinearGradID_5466) " d="M61.25,31.2Q60.85 31.25 60.15 32L60.15 31.4L61.05 30.85L62.05 30.8L61.95 31.2L61.25 31.2" />
<linearGradient
id="LinearGradID_5467" gradientUnits="userSpaceOnUse" gradientTransform="matrix(0.0039978, -4.57764e-005, 4.57764e-005, 0.00120544, 65.55, 30.45)" spreadMethod ="pad" x1="-819.2" y1="0" x2="819.2" y2="0" >
<stop  offset="0" style="stop-color:#3D2B29;stop-opacity:1" />
<stop  offset="0.266667" style="stop-color:#9A8172;stop-opacity:1" />
<stop  offset="0.447059" style="stop-color:#FFFFFF;stop-opacity:1" />
<stop  offset="0.647059" style="stop-color:#B89C8B;stop-opacity:1" />
<stop  offset="1" style="stop-color:#44342B;stop-opacity:1" />
</linearGradient>
<path style="fill:url(#LinearGradID_5467) " d="M68.6,31.25L68.55 30.9L68.5 30.8L68.4 30.3L68.55 30.45L68.6 30.55L68.65 30.6L68.75 30.8L68.8 30.95L68.8 31L68.85 31.4L68.7 31.45L68.6 31.45L68.6 31.25" />
<linearGradient
id="LinearGradID_5468" gradientUnits="userSpaceOnUse" gradientTransform="matrix(0.0018158, -1.52588e-005, 6.10352e-005, 0.00141907, 67.4, 32.6)" spreadMethod ="pad" x1="-819.2" y1="0" x2="819.2" y2="0" >
<stop  offset="0" style="stop-color:#3D2B29;stop-opacity:1" />
<stop  offset="0.647059" style="stop-color:#B89C8B;stop-opacity:1" />
<stop  offset="1" style="stop-color:#44342B;stop-opacity:1" />
</linearGradient>
<path style="fill:url(#LinearGradID_5468) " d="M68.6,31.45L68.7 31.45L68.3 32.35L68.35 32.2L68.6 31.45" />
<linearGradient
id="LinearGradID_5469" gradientUnits="userSpaceOnUse" gradientTransform="matrix(0.0039978, -4.57764e-005, 4.57764e-005, 0.00120544, 65.55, 30.45)" spreadMethod ="pad" x1="-819.2" y1="0" x2="819.2" y2="0" >
<stop  offset="0" style="stop-color:#858585;stop-opacity:0" />
<stop  offset="0.447059" style="stop-color:#FFFFFF;stop-opacity:1" />
<stop  offset="1" style="stop-color:#98A8A6;stop-opacity:0" />
</linearGradient>
<path style="fill:url(#LinearGradID_5469) " d="M62.05,30.8L62.25 30.45Q62.65 29.95 63.55 29.6L63.6 29.6L64.1 29.55L64.7 29.5L65.95 29.55L67.8 29.9L68.4 30.3L68.5 30.8L68.3 30.5Q68.05 30.2 67.25 30L65.2 29.75L63.35 30L62.7 30.4L62.5 30.6L62.45 30.7L62.05 30.8" />
<linearGradient
id="LinearGradID_5470" gradientUnits="userSpaceOnUse" gradientTransform="matrix(0.0018158, -1.52588e-005, 6.10352e-005, 0.00141907, 67.4, 32.6)" spreadMethod ="pad" x1="-819.2" y1="0" x2="819.2" y2="0" >
<stop  offset="0" style="stop-color:#858585;stop-opacity:0.101961" />
<stop  offset="0.447059" style="stop-color:#FFFFFF;stop-opacity:1" />
<stop  offset="1" style="stop-color:#98A8A6;stop-opacity:0" />
</linearGradient>
<path style="fill:url(#LinearGradID_5470) " d="M68.7,31.45L68.85 31.4L68.6 32.25L67.65 33.4L66.25 33.75L66 33.8L66 33.6L66.1 33.55Q67.45 33.45 68.05 32.8L68.2 32.55L68.3 32.35L68.7 31.45" />
<linearGradient
id="LinearGradID_5471" gradientUnits="userSpaceOnUse" gradientTransform="matrix(0.00012207, 0.000732422, -0.00375366, 0.000457764, 63.15, 31.3)" spreadMethod ="pad" x1="-819.2" y1="0" x2="819.2" y2="0" >
<stop  offset="0" style="stop-color:#848484;stop-opacity:1" />
<stop  offset="0.447059" style="stop-color:#FFFFFF;stop-opacity:1" />
<stop  offset="1" style="stop-color:#98A8A6;stop-opacity:0.101961" />
</linearGradient>
<path style="fill:url(#LinearGradID_5471) " d="M66,33.8L64.55 33.8Q63.7 33.75 62.85 33.15Q62.05 32.6 62 31.4L62 31.25L62.15 31.1L62.3 31.05L62.35 31.05L62.35 31.9Q62.65 32.95 63.55 33.3L66 33.6L66 33.8" />
<path style="fill:#453129;fill-opacity:1" d="M71.55,31.3L71.65 31.4L71.7 31.5L71.55 32L71.5 32L71.5 31.95L71.35 31.6L71.3 31.45L71.2 31.2L71.2 30.9L71.2 31L71.2 30.9L71.3 30.5L71.55 31.3" />
<linearGradient
id="LinearGradID_5472" gradientUnits="userSpaceOnUse" gradientTransform="matrix(0.000534058, -3.05176e-005, -4.57764e-005, -0.000534058, 78.3, 30.95)" spreadMethod ="pad" x1="-819.2" y1="0" x2="819.2" y2="0" >
<stop  offset="0" style="stop-color:#3D2B29;stop-opacity:1" />
<stop  offset="0.266667" style="stop-color:#9A8172;stop-opacity:1" />
<stop  offset="0.447059" style="stop-color:#FFFFFF;stop-opacity:1" />
<stop  offset="0.647059" style="stop-color:#B89C8B;stop-opacity:1" />
<stop  offset="1" style="stop-color:#44342B;stop-opacity:1" />
</linearGradient>
<path style="fill:url(#LinearGradID_5472) " d="M77.75,30.55L78.2 30.45L78.75 30.5L80.25 31.05Q80.4 31.5 80.2 31.55L78.8 30.9L77.85 30.95L77.75 30.55" />
<linearGradient
id="LinearGradID_5473" gradientUnits="userSpaceOnUse" gradientTransform="matrix(-7.62939e-005, 0.000732422, 0.00378418, 0.000427246, 76.7, 31.05)" spreadMethod ="pad" x1="-819.2" y1="0" x2="819.2" y2="0" >
<stop  offset="0" style="stop-color:#858585;stop-opacity:0.713725" />
<stop  offset="0.447059" style="stop-color:#FFFFFF;stop-opacity:1" />
<stop  offset="1" style="stop-color:#98A8A6;stop-opacity:0.101961" />
</linearGradient>
<path style="fill:url(#LinearGradID_5473) " d="M77.85,31L77.85 31.1Q77.85 32.3 77.05 32.9Q76.3 33.5 75.45 33.55L74 33.55L74 33.35L76.4 33.05Q77.3 32.65 77.5 31.65L77.55 30.95L77.85 31" />
<linearGradient
id="LinearGradID_5474" gradientUnits="userSpaceOnUse" gradientTransform="matrix(-7.62939e-005, 0.000732422, 0.00378418, 0.000427246, 76.7, 31.05)" spreadMethod ="pad" x1="-819.2" y1="0" x2="819.2" y2="0" >
<stop  offset="0" style="stop-color:#3D2B29;stop-opacity:1" />
<stop  offset="0.266667" style="stop-color:#9A8172;stop-opacity:1" />
<stop  offset="0.447059" style="stop-color:#FFFFFF;stop-opacity:1" />
<stop  offset="0.647059" style="stop-color:#B89C8B;stop-opacity:1" />
<stop  offset="1" style="stop-color:#44342B;stop-opacity:1" />
</linearGradient>
<path style="fill:url(#LinearGradID_5474) " d="M77.55,30.95L77.45 30.7L77.3 30.35L77.5 30.15L77.7 30.5L77.75 30.55L77.85 30.95L77.85 31L77.55 30.95" />
<linearGradient
id="LinearGradID_5475" gradientUnits="userSpaceOnUse" gradientTransform="matrix(-0.0039978, -1.52588e-005, 3.05176e-005, 0.00120544, 74.25, 30.2)" spreadMethod ="pad" x1="-819.2" y1="0" x2="819.2" y2="0" >
<stop  offset="0" style="stop-color:#858585;stop-opacity:0.101961" />
<stop  offset="0.447059" style="stop-color:#FFFFFF;stop-opacity:1" />
<stop  offset="1" style="stop-color:#98A8A6;stop-opacity:0.101961" />
</linearGradient>
<path style="fill:url(#LinearGradID_5475) " d="M77.3,30.35L77.05 30.1L76.35 29.75L74.5 29.5L72.5 29.75Q71.7 30 71.45 30.3L71.35 30.45L71.35 30.4L71.3 30.15L71.95 29.7Q72.6 29.35 73.75 29.3L75.05 29.25L75.6 29.3L76.1 29.35L76.2 29.35Q77.1 29.65 77.5 30.15L77.3 30.35" />
<linearGradient
id="LinearGradID_5476" gradientUnits="userSpaceOnUse" gradientTransform="matrix(-0.0039978, -1.52588e-005, 3.05176e-005, 0.00120544, 74.25, 30.2)" spreadMethod ="pad" x1="-819.2" y1="0" x2="819.2" y2="0" >
<stop  offset="0" style="stop-color:#3D2B29;stop-opacity:1" />
<stop  offset="0.266667" style="stop-color:#9A8172;stop-opacity:1" />
<stop  offset="0.447059" style="stop-color:#FFFFFF;stop-opacity:1" />
<stop  offset="0.647059" style="stop-color:#B89C8B;stop-opacity:1" />
<stop  offset="1" style="stop-color:#44342B;stop-opacity:1" />
</linearGradient>
<path style="fill:url(#LinearGradID_5476) " d="M71,31.2L71 31.15L71 30.75L71.05 30.6L71.2 30.3L71.25 30.2L71.3 30.15L71.35 30.4L71.35 30.45L71.3 30.5L71.2 30.9L71.2 31L71.2 30.9L71.2 31.2L71 31.2" />
<linearGradient
id="LinearGradID_5477" gradientUnits="userSpaceOnUse" gradientTransform="matrix(-0.0018158, 0, 3.05176e-005, 0.00141907, 72.5, 32.35)" spreadMethod ="pad" x1="-819.2" y1="0" x2="819.2" y2="0" >
<stop  offset="0" style="stop-color:#3D2B29;stop-opacity:1" />
<stop  offset="0.647059" style="stop-color:#B89C8B;stop-opacity:1" />
<stop  offset="1" style="stop-color:#44342B;stop-opacity:1" />
</linearGradient>
<path style="fill:url(#LinearGradID_5477) " d="M71.2,31.2L71.3 31.45L71 31.2L71.2 31.2" />
<linearGradient
id="LinearGradID_5478" gradientUnits="userSpaceOnUse" gradientTransform="matrix(-0.0018158, 0, 3.05176e-005, 0.00141907, 72.5, 32.35)" spreadMethod ="pad" x1="-819.2" y1="0" x2="819.2" y2="0" >
<stop  offset="0" style="stop-color:#858585;stop-opacity:0.101961" />
<stop  offset="0.447059" style="stop-color:#FFFFFF;stop-opacity:1" />
<stop  offset="1" style="stop-color:#98A8A6;stop-opacity:0.643137" />
</linearGradient>
<path style="fill:url(#LinearGradID_5478) " d="M74,33.55L73.75 33.5L72.3 33.2L71.65 32.65L71.25 32L71 31.2L71.3 31.45L71.35 31.6L71.5 31.95L71.5 32L71.55 32L71.7 32.35Q72.25 33.2 73.9 33.35L74 33.35L74 33.55" />
<radialGradient
id="RadialGradID_5479" gradientUnits="userSpaceOnUse" gradientTransform="matrix(0.00285339, 0, 0, 0.00151062, 74.3, 30.15)" spreadMethod ="pad" cx="0" cy="0" r="819.2" fx="32" fy="0" >
<stop  offset="0"  style="stop-color:#FFFFFF;stop-opacity:0.792157" />
<stop  offset="1"  style="stop-color:#FFFFFF;stop-opacity:0" />
</radialGradient>
<path style="fill:url(#RadialGradID_5479) " d="M77.45,30.7L77.55 30.95L77.5 31.65Q77.3 32.65 76.4 33.05L74 33.35L73.9 33.35Q72.25 33.2 71.7 32.35L71.55 32L71.7 31.5L71.65 31.4L71.55 31.3L71.3 30.5L71.35 30.45L71.45 30.3Q71.7 30 72.5 29.75L74.5 29.5L76.35 29.75L77.05 30.1L77.3 30.35L77.45 30.7" />
</g>
</svg>
